X: 31649
T: Parks Of Yester, The
R: slip jig
M: 9/8
K: Dmajor
A|FDD AFF BEE|FDD AFF d2A|FDD AFF BEE|FDD AFF d2A|
FDD AGF BGE|FDD AFA d2A|FDD AGF BGE|FDD AFA d2A||
[F3A3d3] AGF BGE|[F3A3d3] AFA d2A|B>cd AGF BGE|FDD AFA d2A|
[F3A3d3] AGF BGE|d/c/B/c/d AFA d2A|B>cd AGF BGE|FDD AFA d2A||

